X:230
T:McDonald’s Quick Step. RH230
R:march
S:Rev.R.Harrison’s MS,c1815,Cumbria
O:England
A:Temple Sowerby,Cumbria
Z:vmp.Simon Wilson. Review PJH, 2008.
M:2/4
L:1/8
Q:1/4=125
K:D
F|E/E/E EF|BEEF|E/E/E EF|dFEF|\
E/E/E EF|EFGA|B/c/d AG|FDD:|!
|:F|Eeed|eEEF|Eeec|dDDF|\
Eeed|BcdB|e/f/g fe|dDD:|

